apps/mobile/assets/icons/phosphor/video.svg

<svg
  height="32"
  viewBox="0 0 256 256"
  width="32"
  xmlns="http://www.w3.org/2000/svg"
>
  <path
    d="m164.44 105.34-48-32a8 8 0 0 0 -12.44 6.66v64a8 8 0 0 0 12.44 6.66l48-32a8 8 0 0 0 0-13.32zm-44.44 23.71v-34.05l25.58 17zm96-89.05h-176a16 16 0 0 0 -16 16v112a16 16 0 0 0 16 16h176a16 16 0 0 0 16-16v-112a16 16 0 0 0 -16-16zm0 128h-176v-112h176zm16 40a8 8 0 0 1 -8 8h-192a8 8 0 0 1 0-16h192a8 8 0 0 1 8 8z"
  />
</svg>

<svg xmlns="http://www.w3.org/2000/svg" width="32" height="32" fill="#000000" viewBox="0 0 256 256"><path d="M164.44,105.34l-48-32A8,8,0,0,0,104,80v64a8,8,0,0,0,12.44,6.66l48-32a8,8,0,0,0,0-13.32ZM120,129.05V95l25.58,17ZM216,40H40A16,16,0,0,0,24,56V168a16,16,0,0,0,16,16H216a16,16,0,0,0,16-16V56A16,16,0,0,0,216,40Zm0,128H40V56H216V168Zm16,40a8,8,0,0,1-8,8H32a8,8,0,0,1,0-16H224A8,8,0,0,1,232,208Z"></path></svg>
